X:1
T: Miss Mackenzie's Reel
C:
R:Reel
Q: 232
K:F
M:4/4
L:1/8
|:B|A1/2B1/2c AF Bd fB|A1/2B1/2c AF EG EC|A1/2B1/2c AF Bd fd|Ac GB AF FB|
A1/2B1/2c AF Bd fB|A1/2B1/2c AF EG EC|A1/2B1/2c AF Bd fd|Ac GB AF Fg|
af ef df cA|af ef dg ec|af ef df cf|Bd c3/2B1/2 AF Fg|
af ef df cA|af ef dg ec|af ge fd ec|fd c3/2B1/2 AF F:|
